src/icons/services/social-media.svg

<svg width="52" height="52" viewBox="0 0 52 52" fill="none" xmlns="http://www.w3.org/2000/svg">
<g clip-path="url(#clip0_349_493)">
<path d="M51.1063 15.6C51.025 13 50.5375 11.1313 49.9688 9.425C49.4 7.71875 48.5062 6.3375 47.125 4.95625C45.7438 3.575 44.3625 2.7625 42.7375 2.1125C41.1125 1.4625 39.325 1.05625 36.5625 0.975C33.7188 0.8125 32.9062 0.8125 26 0.8125C19.0938 0.8125 18.3625 0.8125 15.6 0.89375C12.8375 0.975 11.1313 1.4625 9.425 2.03125C7.71875 2.6 6.3375 3.575 4.95625 4.95625C3.575 6.3375 2.68125 7.71875 2.1125 9.425C1.4625 11.05 1.05625 12.8375 0.975 15.6C0.89375 18.3625 0.8125 19.0938 0.8125 26C0.8125 32.9062 0.8125 33.6375 0.89375 36.4C0.975 39.1625 1.4625 40.8688 2.03125 42.575C2.6 44.2812 3.49375 45.6625 4.875 47.0438C6.25625 48.425 7.71875 49.3188 9.34375 49.8875C10.9688 50.4563 12.7563 50.9437 15.5188 51.025C18.2812 51.1875 19.0125 51.1875 25.9187 51.1875C32.825 51.1875 33.5563 51.1875 36.3188 51.1063C39.0812 51.025 40.7875 50.5375 42.4937 49.9688C44.2 49.4 45.5812 48.5062 46.9625 47.125C48.3438 45.7438 49.2375 44.2812 49.8062 42.6562C50.375 41.0312 50.8625 39.2438 50.9438 36.4813C51.025 33.8813 51.025 33.0688 51.025 26.1625C51.025 19.2563 51.1875 18.3625 51.1063 15.6ZM46.5562 36.1562C46.475 38.5938 45.9875 39.8937 45.6625 40.8687C45.175 42.0062 44.6063 42.9 43.7125 43.7125C42.8187 44.6063 42.0062 45.0938 40.8687 45.6625C39.975 45.9875 38.675 46.475 36.1562 46.5562C33.5563 46.5562 32.7437 46.5562 26.0812 46.5562C19.4187 46.5562 18.525 46.5563 15.925 46.475C13.4875 46.3937 12.1875 45.9062 11.2125 45.5812C10.075 45.0938 9.18125 44.525 8.36875 43.6313C7.475 42.7375 6.9875 41.925 6.41875 40.7875C6.09375 39.8937 5.60625 38.5938 5.525 36.075C5.525 33.5563 5.525 32.7437 5.525 26C5.525 19.2563 5.525 18.4438 5.60625 15.8438C5.6875 13.4062 6.175 12.1062 6.5 11.1312C6.9875 9.99375 7.55625 9.1 8.36875 8.2875C9.2625 7.39375 10.075 6.90625 11.2125 6.41875C12.1062 6.09375 13.4062 5.60625 15.925 5.525C18.525 5.44375 19.3375 5.44375 26.0812 5.44375C32.825 5.44375 33.6375 5.44375 36.2375 5.525C38.675 5.60625 39.975 6.09375 40.95 6.41875C42.0875 6.90625 42.9813 7.475 43.7938 8.2875C44.6875 9.18125 45.175 9.99375 45.7437 11.1312C46.0687 12.025 46.5563 13.325 46.6375 15.8438C46.7188 18.4438 46.7188 19.2563 46.7188 26C46.7188 32.7437 46.6375 33.5563 46.5562 36.1562Z" fill="#9D74D3"/>
<path d="M26.0013 13.0808C18.77 13.0808 13.0825 18.9308 13.0825 25.9996C13.0825 33.2308 18.9325 38.9183 26.0013 38.9183C33.07 38.9183 39.0013 33.2308 39.0013 25.9996C39.0013 18.7683 33.2325 13.0808 26.0013 13.0808ZM26.0013 34.4496C21.2888 34.4496 17.5513 30.6308 17.5513 25.9996C17.5513 21.3683 21.37 17.5496 26.0013 17.5496C30.7138 17.5496 34.4513 21.2871 34.4513 25.9996C34.4513 30.7121 30.7138 34.4496 26.0013 34.4496Z" fill="#9D74D3"/>
<path d="M39.5688 15.5188C41.2291 15.5188 42.575 14.1729 42.575 12.5126C42.575 10.8523 41.2291 9.50635 39.5688 9.50635C37.9084 9.50635 36.5625 10.8523 36.5625 12.5126C36.5625 14.1729 37.9084 15.5188 39.5688 15.5188Z" fill="#9D74D3"/>
</g>
<defs>
<clipPath id="clip0_349_493">
<rect width="52" height="52" fill="white"/>
</clipPath>
</defs>
</svg>

<svg xmlns="http://www.w3.org/2000/svg" width="52" height="52" fill="none"  ><g clip-path="url(#A)" fill="#9d74d3"><path d="M51.106 15.6c-.081-2.6-.569-4.469-1.137-6.175s-1.463-3.088-2.844-4.469-2.763-2.194-4.388-2.844-3.412-1.056-6.175-1.137C33.719.813 32.906.813 26 .813L15.6.894c-2.762.081-4.469.569-6.175 1.138S6.338 3.575 4.956 4.956 2.681 7.719 2.113 9.425C1.463 11.05 1.056 12.838.975 15.6S.813 19.094.813 26l.081 10.4c.081 2.763.569 4.469 1.138 6.175s1.463 3.087 2.844 4.469 2.844 2.275 4.469 2.844a19.01 19.01 0 0 0 6.175 1.137c2.762.163 3.494.163 10.4.163l10.4-.081c2.762-.081 4.469-.569 6.175-1.137s3.088-1.463 4.469-2.844 2.275-2.844 2.844-4.469 1.056-3.412 1.138-6.175c.081-2.6.081-3.412.081-10.319l.081-10.563zm-4.55 20.556c-.081 2.438-.569 3.738-.894 4.712-.488 1.138-1.056 2.031-1.95 2.844-.894.894-1.706 1.381-2.844 1.95-.894.325-2.194.813-4.712.894H26.081c-6.662 0-7.556 0-10.156-.081-2.437-.081-3.738-.569-4.712-.894-1.138-.487-2.031-1.056-2.844-1.95-.894-.894-1.381-1.706-1.95-2.844-.325-.894-.812-2.194-.894-4.712V26l.081-10.156c.081-2.438.569-3.738.894-4.713.487-1.137 1.056-2.031 1.869-2.844.894-.894 1.706-1.381 2.844-1.869.894-.325 2.194-.812 4.713-.894 2.6-.081 3.412-.081 10.156-.081l10.156.081c2.438.081 3.738.569 4.713.894 1.137.487 2.031 1.056 2.844 1.869.894.894 1.381 1.706 1.95 2.844.325.894.813 2.194.894 4.713.081 2.6.081 3.412.081 10.156s-.081 7.556-.163 10.156zM26.001 13.081c-7.231 0-12.919 5.85-12.919 12.919 0 7.231 5.85 12.919 12.919 12.919s13-5.687 13-12.919-5.769-12.919-13-12.919zm0 21.369c-4.713 0-8.45-3.819-8.45-8.45a8.5 8.5 0 0 1 8.45-8.45 8.39 8.39 0 0 1 8.45 8.45 8.39 8.39 0 0 1-8.45 8.45zm13.568-18.931c1.66 0 3.006-1.346 3.006-3.006s-1.346-3.006-3.006-3.006-3.006 1.346-3.006 3.006 1.346 3.006 3.006 3.006z"/></g><defs><clipPath id="A"><path fill="#fff" d="M0 0h52v52H0z"/></clipPath></defs></svg>
